X: 8982
T: Cutting Bracken
R: strathspey
M: 4/4
K: Aminor
[M:2/4]
|:AA a2|ge g2|e>d BA|GA BG|
AA a2|ge g2|e>d BG|1 A2 AG:|2 A2 Ad||
|:e>d BA|GA Bd|e>d BA|B2 d2|
e>d BA|GA Bd|ed gB|1 A2 Ad:|2 A2 AG||

